build/images/icons/pin.svg

<svg width="30" height="30" viewBox="0 0 30 30" fill="none" xmlns="http://www.w3.org/2000/svg">
<path d="M14.9996 5.6001C14.0552 5.6001 13.132 5.88015 12.3468 6.40483C11.5615 6.92951 10.9495 7.67527 10.5881 8.54779C10.2267 9.4203 10.1321 10.3804 10.3164 11.3067C10.5006 12.2329 10.9554 13.0837 11.6232 13.7515C12.291 14.4193 13.1418 14.8741 14.0681 15.0584C14.9943 15.2426 15.9544 15.148 16.8269 14.7866C17.6994 14.4252 18.4452 13.8132 18.9699 13.0279C19.4946 12.2427 19.7746 11.3195 19.7746 10.3751C19.7746 9.10869 19.2715 7.89415 18.376 6.99866C17.4806 6.10318 16.266 5.6001 14.9996 5.6001ZM14.9996 13.4834C14.3848 13.4834 13.7839 13.3011 13.2727 12.9596C12.7616 12.618 12.3631 12.1326 12.1279 11.5646C11.8926 10.9966 11.8311 10.3717 11.951 9.76869C12.0709 9.16574 12.367 8.61188 12.8017 8.17717C13.2364 7.74247 13.7902 7.44643 14.3932 7.32649C14.9962 7.20655 15.6211 7.26811 16.1891 7.50337C16.7571 7.73863 17.2425 8.13704 17.5841 8.6482C17.9256 9.15936 18.1079 9.76033 18.1079 10.3751C18.1057 11.198 17.7773 11.9865 17.1946 12.5676C16.6119 13.1488 15.8226 13.4751 14.9996 13.4751V13.4834Z" fill="#4242EA"/>
<path d="M15.0003 1.6665C12.4046 1.66867 9.91525 2.69791 8.07593 4.52942C6.23662 6.36092 5.1968 8.84587 5.18359 11.4415C5.18359 15.3332 7.36693 18.5915 8.96693 20.9665L9.25859 21.3998C10.8505 23.707 12.5582 25.9321 14.3753 28.0665L15.0086 28.8082L15.6419 28.0665C17.4587 25.9319 19.1665 23.7069 20.7586 21.3998L21.0503 20.9582C22.6419 18.5832 24.8253 15.3332 24.8253 11.4415C24.812 8.84443 23.7711 6.35822 21.93 4.52648C20.0889 2.69474 17.5974 1.66647 15.0003 1.6665ZM19.6586 19.9998L19.3586 20.4415C17.9253 22.5915 16.0253 24.9998 15.0003 26.1915C14.0169 24.9998 12.0753 22.5915 10.6419 20.4415L10.3503 19.9998C8.87526 17.7998 6.85026 14.7915 6.85026 11.4082C6.85026 10.3379 7.06107 9.2781 7.47064 8.2893C7.88022 7.3005 8.48054 6.40205 9.23734 5.64525C9.99414 4.88845 10.8926 4.28813 11.8814 3.87855C12.8702 3.46898 13.93 3.25817 15.0003 3.25817C16.0705 3.25817 17.1303 3.46898 18.1191 3.87855C19.1079 4.28813 20.0064 4.88845 20.7632 5.64525C21.52 6.40205 22.1203 7.3005 22.5299 8.2893C22.9395 9.2781 23.1503 10.3379 23.1503 11.4082C23.1503 14.8248 21.1336 17.8332 19.6586 19.9998Z" fill="#4242EA"/>
</svg>

<svg width="30" height="30" fill="none" xmlns="http://www.w3.org/2000/svg"><path d="M15 5.6a4.775 4.775 0 100 9.55 4.775 4.775 0 000-9.55zm0 7.883a3.109 3.109 0 113.108-3.108 3.108 3.108 0 01-3.108 3.1v.008z" fill="#4242EA"/><path d="M15 1.667a9.825 9.825 0 00-9.816 9.774c0 3.892 2.183 7.15 3.783 9.525l.292.434a82.991 82.991 0 005.116 6.667l.634.741.633-.741a83.158 83.158 0 005.117-6.667l.291-.442c1.592-2.375 3.775-5.625 3.775-9.516A9.825 9.825 0 0015 1.666zM19.66 20l-.3.442C17.925 22.591 16.025 25 15 26.192c-.983-1.192-2.925-3.6-4.358-5.75L10.35 20c-1.475-2.2-3.5-5.209-3.5-8.592a8.15 8.15 0 1116.3 0c0 3.417-2.016 6.425-3.491 8.592z" fill="#4242EA"/></svg>
